X:1
T: Miss Farquharson of Invercauld's Reel
C:
R:Reel
Q: 232
K:Cm
M:4/4
L:1/8
|:G|c1/2c1/2c Gc EC GE|DB FB DB, FD|c2 Gc EG cd|ec d=B c1/2c1/2c cG|
c2 Gc EC GE|DB FB DB, FD|EC FD GE AF|Gg df ec cg|
ac gc fd ec|fg ef dB fg|ac gc fd ec|fg ed ec cg|
ac gc fd ec|fg ef dB fd|ce df eg fa|ge fd ec c:|
